public/images/monitor.svg

<svg width="48" height="48" fill="none" xmlns="http://www.w3.org/2000/svg"><path d="M44 23.78v1.78c0 7.12-1.78 8.87-8.89 8.87H12.88C5.77 34.43 4 32.66 4 25.56V12.88C4 5.78 5.77 4 12.88 4H16M24 34.43v9.56M4 26h40M15 44h18" stroke="#1B31FF" stroke-width="2.2" stroke-linejoin="round" stroke-linecap="round"/><path d="M26.19 18.74c-2.76 0-3.68-1.84-3.68-3.68V8.02c0-2.2 1.81-4 4-4h9.2c2.04 0 3.69 1.64 3.69 3.68v7.36c0 2.04-1.65 3.68-3.69 3.68h-9.52zM39.4 14.14V8.61l2.42-1.7C43.01 6.09 44 6.59 44 8.05v6.67c0 1.45-.99 1.95-2.18 1.12l-2.42-1.7z" stroke="#1B31FF" stroke-width="2.2" stroke-linejoin="round"/></svg>

<svg width="48.000000" height="48.000000" viewBox="0 0 48 48" fill="none" xmlns="http://www.w3.org/2000/svg" xmlns:xlink="http://www.w3.org/1999/xlink">
	<desc>
			Created with Pixso.
	</desc>
	<defs/>
	<path id="Vector" d="M44 23.78L44 25.56C44 32.68 42.22 34.43 35.11 34.43L12.88 34.43C5.77 34.43 4 32.66 4 25.56L4 12.88C4 5.78 5.77 4 12.88 4L16 4" stroke="#1B31FF" stroke-opacity="1.000000" stroke-width="2.200000" stroke-linejoin="round" stroke-linecap="round"/>
	<path id="Vector" d="M24 34.43L24 43.99" stroke="#1B31FF" stroke-opacity="1.000000" stroke-width="2.200000" stroke-linejoin="round" stroke-linecap="round"/>
	<path id="Vector" d="M4 26L44 26" stroke="#1B31FF" stroke-opacity="1.000000" stroke-width="2.200000" stroke-linejoin="round" stroke-linecap="round"/>
	<path id="Vector" d="M15 44L33 44" stroke="#1B31FF" stroke-opacity="1.000000" stroke-width="2.200000" stroke-linejoin="round" stroke-linecap="round"/>
	<path id="Vector" d="M26.19 18.74C23.43 18.74 22.51 16.9 22.51 15.06L22.51 8.02C22.51 5.82 24.32 4.02 26.51 4.02L35.71 4.02C37.75 4.02 39.4 5.66 39.4 7.7L39.4 15.06C39.4 17.1 37.75 18.74 35.71 18.74L26.19 18.74Z" stroke="#1B31FF" stroke-opacity="1.000000" stroke-width="2.200000" stroke-linejoin="round"/>
	<path id="Vector" d="M39.4 14.14L39.4 8.61L41.82 6.91C43.01 6.09 44 6.59 44 8.05L44 14.72C44 16.17 43.01 16.67 41.82 15.84L39.4 14.14Z" stroke="#1B31FF" stroke-opacity="1.000000" stroke-width="2.200000" stroke-linejoin="round"/>
	<g opacity="0.000000"/>
</svg>
